!!!!SEGMENT: pl-wtm--r-1461--019_stefani-jozef--wszechstronne-cwiczenia-glosowe-allegro-moderato.krn
!!!cenid: 18xx:2196
!!!COM: Stefani, Józef
!!!COM-rismID: pe30024097
!!!CDT: 1800/04/16-1876/03/19
!!!CNT: Polish
!!!GTL: Wszechstronne ćwiczenia głosowe
!!!OTL: Allegro moderato
!!!PDT:
!!!AGN: Secular
!!!SMS-siglum: PL-Wtm
!!!SMS-shelfmark: R 1461
!!!SMS-shelfwork: 019 G
!!!SMS-variant:
!!!SMS-altvar:
!!!NIFC-rismSourceID: 1001120710
!!!NIFC-islandoraID: pl-wtm:25869
!!!URL-pdf-islandora: https://repozytorium.nifc.pl/islandora/object/pl-wtm%3A25869/datastream/PDF/view
!!!URL-scan: https://polish.musicsources.pl/pl/lokalizacje/galeria/rekopisy/6276/16 @EN{Scan on Polish Music Sources Website} @PL{Skany w portalu Dziedzictwo Muzyki Polskiej w otwartym dostępie}
!!!ONB-nifc: UWAGA: skan 0016, s. 28 – 0017, s. 31
!!!AIN: 2 forte 1 tenor
!!!key:
**kern	**kern	**kern	**text	**text	**dynam
*part3	*part2	*part1	*part1	*part1	*part1
*staff3	*staff2	*staff1	*staff1	*staff1	*
*Iforte	*Iforte	*Itenor	*	*	*
*I"Fortepian	*I"Fortepian	*I"Sopran/Tenor	*	*	*
*clefF4	*clefG2	*clefG2	*	*	*
*k[]	*k[]	*k[]	*	*	*
*C:	*C:	*C:	*	*	*
*M4/4	*M4/4	*M4/4	*	*	*
*met(c)	*met(c)	*met(c)	*	*	*
=1	=1	=1	=1	=1	=1
!	!LO:TX:t=P:problem=all\middle or right&colon; global	!	!	!	!
8CL 8CC\	8cL 8G< 8E</	8c^^>/L	do	a-	.
!	!	!	!	!	!LO:HP:a
8C 8CC\	8c 8G< 8E</	16d/L	re	.	<
.	.	16e/JJ	mi	.	.
8C 8CC\	8c 8G< 8E</	16f/LL	fa	.	.
.	.	16g/	sol	.	.
8CJ 8CC\	8cJ 8G< 8E</	16a/	la	.	.
.	.	16b/JJ	si	.	.
!	!	!	!	!	!LO:HP:a
*tremolo	*tremolo	*	*	*	*
*2\right	*2\right	*	*	*	*
8CL 8CC\	8cL 8G< 8E</	8cc/L	do	.	[ >
8C 8CC\	8c 8G< 8E</	16b/L	si	.	.
.	.	16a/JJ	la	.	.
8C 8CC\	8c 8G< 8E</	16g/LL	sol	.	.
.	.	16f/	fa	.	.
8CJ 8CC\	8cJ 8G< 8E</	16e/	mi	.	.
.	.	16d/JJ	re	.	]
=2	=2	=2	=2	=2	=2
8CL 8CC\	8cL 8G< 8E</	4c^^>/	do	.	.
8C 8CC\	8c 8G< 8E</	.	.	.	.
8C 8CC\	8c 8G< 8E</	4r	.	.	.
8CJ 8CC\	8cJ 8G< 8E</	.	.	.	.
8AA-XL 8AAA-X\	8c^>L 8A-X< 8G-X< 8E-X</	2r	.	.	.
8AA- 8AAA-\	8c 8A-< 8G-< 8E-</	.	.	.	.
8AA- 8AAA-\	8c 8A-< 8G-< 8E-</	.	.	.	.
8AA-J 8AAA-\	8cJ 8A-< 8G-< 8E-</	.	.	.	.
!!LO:LB:g=original
=3	=3	=3	=3	=3	=3
8D-XL 8DD-X\	8d-XL 8A-X< 8F</	8d-X^^>/L	do	-a-	.
8D- 8DD-\	8d- 8A-< 8F</	16e-X/L	re	.	.
!	!	!	!	!	!LO:HP:b
.	.	16f/JJ	mi	.	<
8D- 8DD-\	8d- 8A-< 8F</	16g-X/LL	fa	.	.
.	.	16a-X/	sol	.	.
8D-J 8DD-\	8d-J 8A<- 8F</	16b-X/	la	.	.
.	.	16cc/JJ	si	.	.
!	!	!	!	!	!LO:HP:b
8D-L 8DD-\	8d-L 8A-< 8F</	8dd-X/L	do	.	[ >
8D- 8DD-\	8d- 8A-< 8F</	16cc/L	si	.	.
.	.	16b-/JJ	la	.	.
8D- 8DD-\	8d- 8A-< 8F</	16a-/LL	sol	.	.
.	.	16g-/	fa	.	]
8D-J 8DD-\	8d-J 8A-< 8F</	16f/	mi	.	.
.	.	16e-/JJ	re	.	.
=4	=4	=4	=4	=4	=4
8D-XL 8DD-X\	8d-XL 8A-X< 8F</	4d-X^^>/	do	.	.
8D- 8DD-\	8d- 8A-< 8F</	.	.	.	.
8D- 8DD-\	8d- 8A-< 8F</	4r	.	.	.
8D-J 8DD-\	8d-J 8A-< 8F</	.	.	.	.
8AAnL 8AAA\	8c#XL 8An< 8G< 8En</	2r	.	.	.
8AA 8AAA\	8c# 8A< 8G< 8En</	.	.	.	.
8AA 8AAA\	8c# 8A< 8G< 8En</	.	.	.	.
8AAJ 8AAA\	8c#J 8A< 8G< 8En</	.	.	.	.
!!LO:PB:g=original
=5	=5	=5	=5	=5	=5
8DL 8DD\	8dnL 8An< 8F#X</	8dn^^>/L	do	-a-	.
!	!	!	!	!	!LO:HP:a
8D 8DD\	8d 8A< 8F#</	16en/L	re	.	<
.	.	16f#X/JJ	mi	.	.
8D 8DD\	8d 8A< 8F#</	16g/LL	fa	.	.
.	.	16a/	sol	.	.
8DJ 8DD\	8dJ 8A< 8F#</	16b/	la	.	.
.	.	16cc#X/JJ	si	.	.
!	!	!	!	!	!LO:HP:a
8DL 8DD\	8dL 8A< 8F#</	8dd/L	do	.	[ >
8D 8DD\	8d 8A< 8F#</	16cc#/L	si	.	.
.	.	16b/JJ	la	.	.
8D 8DD\	8d 8A< 8F#</	16a/LL	sol	.	.
.	.	16g/	fa	.	.
8DJ 8DD\	8dJ 8A< 8F#</	16f#/	mi	.	]
.	.	16e/JJ	re	.	.
=6	=6	=6	=6	=6	=6
8DL 8DD\	8dL 8A< 8F#X</	4d^^>/	do	.	.
8D 8DD\	8d 8A< 8F#</	.	.	.	.
8D 8DD\	8d 8A< 8F#</	4r	.	.	.
8DJ 8DD\	8dJ 8A< 8F#</	.	.	.	.
8BB-XL 8BBB-X\	8d^>L 8B-X< 8A-X< 8Fn</	2r	.	.	.
8BB- 8BBB-\	8d 8B-< 8A-< 8F</	.	.	.	.
8BB- 8BBB-\	8d 8B-< 8A-< 8F</	.	.	.	.
8BB-J 8BBB-\	8dJ 8B-< 8A-< 8F</	.	.	.	.
!!LO:LB:g=original
=7	=7	=7	=7	=7	=7
8E-XL 8EE-X\	8e-XL 8B-X< 8G</	8e-X^^>/L	do	-a-	.
8E- 8EE-\	8e- 8B-< 8G</	16f/L	.	.	.
!	!	!	!	!	!LO:HP:a
.	.	16g/JJ	.	.	<
8E- 8EE-\	8e- 8B-< 8G</	16a-X\LL	.	.	.
.	.	16b-X\	.	.	.
8E-J 8EE-\	8e-J 8B-< 8G</	16cc\	.	.	.
.	.	16dd\JJ	.	.	.
!	!	!	!	!	!LO:HP:a
8E-L 8EE-\	8e-L 8B-< 8G</	8ee-X\L	.	.	[ >
8E- 8EE-\	8e- 8B-< 8G</	16dd\L	.	.	.
.	.	16cc\JJ	.	.	.
8E- 8EE-\	8e- 8B-< 8G</	16b-/LL	.	.	]
.	.	16a-/	.	.	.
8E-J 8EE-\	8e-J 8B-< 8G</	16g/	.	.	.
.	.	16f/JJ	.	.	.
=8	=8	=8	=8	=8	=8
8E-XL 8EE-X\	8e-XL 8B-X< 8G</	4e-X^^>/	.	.	.
8E- 8EE-\	8e- 8B-< 8G</	.	.	.	.
8E- 8EE-\	8e- 8B-< 8G</	4r	.	.	.
8E-J 8EE-\	8e-J 8B-< 8G</	.	.	.	.
8BBnL 8BBBn\	8d#X^>L 8Bn< 8A< 8F#X</	2r	.	.	.
8BB 8BBB\	8d# 8B< 8A< 8F#</	.	.	.	.
8BB 8BBB\	8d# 8B< 8A< 8F#</	.	.	.	.
8BBJ 8BBB\	8d#J 8B< 8A< 8F#</	.	.	.	.
!!LO:LB:g=original
=9	=9	=9	=9	=9	=9
8EnL 8EEn\	8enL 8Bn< 8G#X</	8en^^>/L	do	-a-	.
!	!	!	!	!	!LO:HP:b
8E 8EE\	8e 8B< 8G#</	16f#X/L	.	.	<
.	.	16g#X/JJ	.	.	.
8E 8EE\	8e 8B< 8G#</	16a/LL	.	.	.
.	.	16b/	.	.	.
8EJ 8EE\	8eJ 8B< 8G#</	16cc#X/	.	.	.
.	.	16dd#X/JJ	.	.	.
!	!	!	!	!	!LO:HP:b
8EL 8EE\	8eL 8B< 8G#</	8ee/L	.	.	[ >
8E 8EE\	8e 8B< 8G#</	16dd#/L	.	.	.
.	.	16cc#/JJ	.	.	.
8E 8EE\	8e 8B< 8G#</	16b/LL	.	.	.
.	.	16a/	.	.	]
8EJ 8EE\	8eJ 8B< 8G#</	16g#/	.	.	.
.	.	16f#/JJ	.	.	.
=10	=10	=10	=10	=10	=10
8EL 8EE\	8eL 8B< 8G#X</	4e^^>/	.	.	.
8E 8EE\	8e 8B< 8G#</	.	.	.	.
8E 8EE\	8e 8B< 8G#</	4r	.	.	.
8EJ 8EE\	8eJ 8B< 8G#</	.	.	.	.
8CnL 8CC\	8e^>L 8cn 8B-X< 8Gn</	2r	.	.	.
8C 8CC\	8e 8c 8B-< 8G</	.	.	.	.
8C 8CC\	8e 8c 8B-< 8G</	.	.	.	.
8CJ 8CC\	8eJ 8c 8B-< 8G</	.	.	.	.
!!LO:LB:g=original
=11	=11	=11	=11	=11	=11
8FL 8FF\	8fL 8c 8A</	8fn^^>/L	do	-a	.
!	!	!	!	!	!LO:HP:b
8F 8FF\	8f 8c 8A</	16g/L	.	.	<
.	.	16a/JJ	.	.	.
8F 8FF\	8f 8c 8A</	16b-X/LL	.	.	.
.	.	16cc/	.	.	.
8FJ 8FF\	8fJ 8c 8A</	16dd/	.	.	.
.	.	16ee/JJ	.	.	.
!	!	!	!	!	!LO:HP:b
8FL 8FF\	8fL 8c 8A</	8ff/L	.	.	[ >
8F 8FF\	8f 8c 8A</	16ee/L	.	.	.
.	.	16dd/JJ	.	.	.
8F 8FF\	8f 8c 8A</	16cc/LL	.	.	.
.	.	16b-/	.	.	]
8FJ 8FF\	8fJ 8c 8A</	16a/	.	.	.
.	.	16g/JJ	.	.	.
=12	=12	=12	=12	=12	=12
8FL 8FF\	8fL 8c 8A</	4f^^>/	.	.	.
8F 8FF\	8f 8c 8A</	.	.	.	.
8F 8FF\	8f 8c 8A</	4r	.	.	.
8FJ 8FF\	8fJ 8c 8A</	.	.	.	.
8C#XL 8CC#X\	8e#X^>L 8c#X 8Bn< 8G#X</	2r	.	.	.
8C# 8CC#\	8e# 8c# 8B< 8G#</	.	.	.	.
8C# 8CC#\	8e# 8c# 8B< 8G#</	.	.	.	.
8C#J 8CC#\	8e#J 8c# 8B< 8G#</	.	.	.	.
!!LO:PB:g=original
=13	=13	=13	=13	=13	=13
8F#XL 8FF#X\	8f#XL 8c#X 8A#X</	8f#X^^>/L	a-	.	.
!	!	!	!	!	!LO:HP:b
8F# 8FF#\	8f# 8c# 8A#</	16g#X/L	.	.	<
.	.	16a/JJ	.	.	.
8F# 8FF#\	8f# 8c# 8A#</	16b\LL	.	.	.
.	.	16cc#X\	.	.	.
8F#J 8FF#\	8f#J 8c# 8A#</	16dd#X\	.	.	.
.	.	16ee#\JJ	.	.	.
!	!	!	!	!	!LO:HP:b
8F#L 8FF#\	8f#L 8c# 8A#</	8ff#X\L	.	.	[ >
8F# 8FF#\	8f# 8c# 8A#</	16ee#\L	.	.	.
.	.	16dd#\JJ	.	.	.
8F# 8FF#\	8f# 8c# 8A#</	16cc#\LL	.	.	]
.	.	16b\	.	.	.
8F#J 8FF#\	8f#J 8c# 8A#</	16a\	.	.	.
.	.	16g#\JJ	.	.	.
=14	=14	=14	=14	=14	=14
8F#XL 8FF#X\	8f#XL 8c#X 8A#X</	4f#X^^>/	.	.	.
8F# 8FF#\	8f# 8c# 8A#</	.	.	.	.
8F# 8FF#\	8f# 8c# 8A#</	4r	.	.	.
8F#J 8FF#\	8f#J 8c# 8A#</	.	.	.	.
8DL 8DD\	8f#^>L 8d 8cn 8An</	2r	.	.	.
8D 8DD\	8f# 8d 8c 8A</	.	.	.	.
8D 8DD\	8f# 8d 8c 8A</	.	.	.	.
8DJ 8DD\	8f#J 8d 8c 8A</	.	.	.	.
=15	=15	=15	=15	=15	=15
!	!	!	!	!	!LO:HP:b
8GL 8GG\	8gL 8d 8B/	8gn^^>/L	-a-	.	<
8G 8GG\	8g 8d 8B/	16an/L	.	.	.
.	.	16b/JJ	.	.	.
8G 8GG\	8g 8d 8B/	16cc\LL	.	.	.
.	.	16dd\	.	.	.
8GJ 8GG\	8gJ 8d 8B/	16ee\	.	.	.
.	.	16ff#X\JJ	.	.	.
!	!	!	!	!	!LO:HP:b
8GL 8GG\	8gL 8d 8B/	8gg\L	.	.	[ >
8G 8GG\	8g 8d 8B/	16ff#\L	.	.	.
.	.	16ee\JJ	.	.	.
8G 8GG\	8g 8d 8B/	16dd\LL	.	.	.
.	.	16cc\	.	.	]
8GJ 8GG\	8gJ 8d 8B/	16b\	.	.	.
.	.	16a\JJ	.	.	.
!!LO:LB:g=original
=16	=16	=16	=16	=16	=16
8GL 8GG\	8gL 8d 8B/	4g^^>/	.	.	.
8G 8GG\	8g 8d 8B/	.	.	.	.
8G 8GG\	8g 8d 8B/	4r	.	.	.
8GJ 8GG\	8gJ 8d 8B/	.	.	.	.
8E-XL 8EE-X\	8g^>L 8e-X 8d-X 8B-X/	2r	.	.	.
8E- 8EE-\	8g 8e- 8d- 8B-/	.	.	.	.
8E- 8EE-\	8g 8e- 8d- 8B-/	.	.	.	.
8E-J 8EE-\	8gJ 8e- 8d- 8B-/	.	.	.	.
=17	=17	=17	=17	=17	=17
8A-XL 8AA-X\	8a-XL 8e-X 8c/	8a-X^^>\L	-a-	.	.
8A- 8AA-\	8a- 8e- 8c/	16b-X\L	.	.	.
!	!	!	!	!	!LO:HP:b
.	.	16cc\JJ	.	.	<
8A- 8AA-\	8a- 8e- 8c/	16dd-X\LL	.	.	.
.	.	16ee-X\	.	.	.
8A-J 8AA-\	8a-J 8e- 8c/	16ff\	.	.	.
.	.	16gg\JJ	.	.	.
!	!	!	!	!	!LO:HP:b
8A-L 8AA-\	8a-L 8e- 8c/	8aa-X\L	.	.	[ >
8A- 8AA-\	8a- 8e- 8c/	16gg\L	.	.	.
.	.	16ff\JJ	.	.	.
8A- 8AA-\	8a- 8e- 8c/	16ee-\LL	.	.	.
.	.	16dd-\	.	.	]
8A-J 8AA-\	8a-J 8e- 8c/	16cc\	.	.	.
.	.	16b-\JJ	.	.	.
=18	=18	=18	=18	=18	=18
8A-XL 8AA-X\	8a-XL 8e-X 8c/	4a-X^^>/	.	.	.
8A- 8AA-\	8a- 8e- 8c/	.	.	.	.
8A- 8AA-\	8a- 8e- 8c/	4r	.	.	.
8A-J 8AA-\	8a-J 8e- 8c/	.	.	.	.
8EnL 8EEn/	8g#X^>L 8en 8d 8Bn/	2r	.	.	.
8E 8EE/	8g# 8e 8d 8B/	.	.	.	.
8E 8EE/	8g# 8e 8d 8B/	.	.	.	.
8EJ 8EE/	8g#J 8e 8d 8B/	.	.	.	.
!!LO:LB:g=original
=19	=19	=19	=19	=19	=19
8AnL 8AAn\	8anL 8en 8c#X/	8an^^>\L	-a-	.	.
!	!	!	!	!	!LO:HP:b
8A 8AA\	8a 8e 8c#/	16bn\L	.	.	<
.	.	16cc#X\JJ	.	.	.
8A 8AA\	8a 8e 8c#/	16dd\LL	.	.	.
.	.	16een\	.	.	.
8AJ 8AA\	8aJ 8e 8c#/	16ff#X\	.	.	.
.	.	16gg#X\JJ	.	.	.
!	!	!	!	!	!LO:HP:b
8AL 8AA\	8aL 8e 8c#/	8aa\L	.	.	[ >
8A 8AA\	8a 8e 8c#/	16gg#\L	.	.	.
.	.	16ff#\JJ	.	.	.
8A 8AA\	8a 8e 8c#/	16ee\LL	.	.	.
.	.	16dd\	.	.	]
8AJ 8AA\	8aJ 8e 8c#/	16cc#\	.	.	.
.	.	16b\JJ	.	.	.
=20	=20	=20	=20	=20	=20
8AL 8AA\	8aL 8e 8c#X/	4a^^>/	.	.	.
8A 8AA\	8a 8e 8c#/	.	.	.	.
8A 8AA\	8a 8e 8c#/	4r	.	.	.
8AJ 8AA\	8aJ 8e 8c#/	.	.	.	.
8FL 8FF\	8a^>L 8fn 8e-X 8cn/	2r	.	.	.
8F 8FF\	8a 8f 8e- 8c/	.	.	.	.
8F 8FF\	8a 8f 8e- 8c/	.	.	.	.
8FJ 8FF\	8aJ 8f 8e- 8c/	.	.	.	.
=21	=21	=21	=21	=21	=21
8B-XL 8BB-X\	8b-XL 8f 8d/	8b-X^^>\L	-a-	.	.
!	!	!	!	!	!LO:HP:b
8B- 8BB-\	8b- 8f 8d/	16cc\L	.	.	<
.	.	16dd\JJ	.	.	.
8B- 8BB-\	8b- 8f 8d/	16ee-X\LL	.	.	.
.	.	16ff\	.	.	.
8B-J 8BB-\	8b-J 8f 8d/	16gg\	.	.	.
.	.	16aa\JJ	.	.	.
!	!	!	!	!	!LO:HP:b
8B-L 8BB-\	8b-L 8f 8d/	8bb-X\L	.	.	[ >
8B- 8BB-\	8b- 8f 8d/	16aa\L	.	.	.
.	.	16gg\JJ	.	.	.
8B- 8BB-\	8b- 8f 8d/	16ff\LL	.	.	.
.	.	16ee-\	.	.	.
8B-J 8BB-\	8b-J 8f 8d/	16dd\	.	.	]
.	.	16cc\JJ	.	.	.
!!LO:LB:g=original
=22	=22	=22	=22	=22	=22
8B-XL 8BB-X\	8b-XL 8f 8d/	4b-X^^>\	.	.	.
8B- 8BB-\	8b- 8f 8d/	.	.	.	.
8B- 8BB-\	8b- 8f 8d/	4r	.	.	.
8B-J 8BB-\	8b-J 8f 8d/	.	.	.	.
8F#XL 8FF#X\	8a#X^>L 8f#X 8en 8c#X/	2r	.	.	.
8F# 8FF#\	8a# 8f# 8e 8c#/	.	.	.	.
8F# 8FF#\	8a# 8f# 8e 8c#/	.	.	.	.
8F#J 8FF#\	8a#J 8f# 8e 8c#/	.	.	.	.
=23	=23	=23	=23	=23	=23
8BnL 8BBn\	8bnL 8f#X 8d#X/	8bn^^>\L	-a	.	.
!	!	!	!	!	!LO:HP:b
8B 8BB\	8b 8f# 8d#/	16cc#X\L	.	.	<
.	.	16dd#X\JJ	.	.	.
8B 8BB\	8b 8f# 8d#/	16ee\LL	.	.	.
.	.	16ff#X\	.	.	.
8BJ 8BB\	8bJ 8f# 8d#/	16gg#X\	.	.	.
.	.	16aa#X\JJ	.	.	.
!	!	!	!	!	!LO:HP:b
8BL 8BB\	8bL 8f# 8d#/	8bb\L	.	.	[ >
8B 8BB\	8b 8f# 8d#/	16aa#\L	.	.	.
.	.	16gg#\JJ	.	.	.
8B 8BB\	8b 8f# 8d#/	16ff#\LL	.	.	.
.	.	16ee\	.	.	.
8BJ 8BB\	8bJ 8f# 8d#/	16dd#\	.	.	]
.	.	16cc#\JJ	.	.	.
=24	=24	=24	=24	=24	=24
8BL 8BB\	8bL 8f#X 8d#X/	4b^^>\	.	.	.
8B 8BB\	8b 8f# 8d#/	.	.	.	.
8B 8BB\	8b 8f# 8d#/	4r	.	.	.
8BJ 8BB\	8bJ 8f# 8d#/	.	.	.	.
8GL 8GG\	8b^>L 8gn 8fn 8dn/	2r	.	.	.
8G 8GG\	8b 8g 8f 8d/	.	.	.	.
8G 8GG\	8b 8g 8f 8d/	.	.	.	.
8GJ 8GG\	8bJ 8g 8f 8d/	.	.	.	.
!!LO:PB:g=original
=25	=25	=25	=25	=25	=25
8cL 8C\	8ccL 8g 8e/	8cc^^>\L	.	.	.
!	!	!	!	!	!LO:HP:b
8c 8C\	8cc 8g 8e/	16dd\L	.	.	<
.	.	16ee\JJ	.	.	.
8c 8C\	8cc 8g 8e/	16ff\LL	.	.	.
.	.	16gg\	.	.	.
8cJ 8C\	8ccJ 8g 8e/	16aa\	.	.	.
.	.	16bb\JJ	.	.	.
!	!	!	!	!	!LO:HP:b
8cL 8C\	8ccL 8g 8e/	8ccc\L	.	.	[ >
8c 8C\	8cc 8g 8e/	16bb\L	.	.	.
.	.	16aa\JJ	.	.	.
8c 8C\	8cc 8g 8e/	16gg\LL	.	.	.
.	.	16ff\	.	.	.
8cJ 8C\	8ccJ 8g 8e/	16ee\	.	.	]
.	.	16dd\JJ	.	.	.
=26	=26	=26	=26	=26	=26
8cL 8C\	8ccL 8g 8e/	4cc^^>\	.	.	.
8c 8C\	8cc 8g 8e/	.	.	.	.
8c 8C\	8cc 8g 8e/	4r	.	.	.
8cJ 8C\	8ccJ 8g 8e/	.	.	.	.
*	*	*2\right	*	*	*
8F#XL 8FF#X/	8aL 8e-X 8c/	2aa\	la	.	.
8F# 8FF#/	8a 8e- 8c/	.	.	.	.
8F# 8FF#/	8a 8e- 8c/	.	.	.	.
8F#J 8FF#/	8aJ 8e- 8c/	.	.	.	.
=27	=27	=27	=27	=27	=27
8GL 8GG\	8gL 8en 8c/	4.gg\	sol	.	.
8G 8GG\	8g 8e 8c/	.	.	.	.
8G 8GG\	8g 8e 8c/	.	.	.	.
8GJ 8GG\	8gJ 8e 8c/	16ee\LL	mi	.	.
.	.	16cc\JJ	do	.	.
8GL 8GG\	8bL 8f 8d/	4g/	sol	.	.
8G 8GG\	8b 8f 8d/	.	.	.	.
8G 8GG\	8b 8f 8d/	4b\	si	.	.
8GJ 8GG\	8bJ 8f 8d/	.	.	.	.
!!LO:LB:g=original
=28	=28	=28	=28	=28	=28
!	!	!	!	!	!LO:HP:b
8AL 8AA\	8ccL 8e 8c/	2cc\	do-	.	<
8A 8AA\	8cc 8e 8c/	.	.	.	.
8A 8AA\	8cc 8e 8c/	.	.	.	.
8AJ 8AA\	8ccJ 8e 8c/	.	.	.	.
8GL 8GG\	8cc#XL 8a 8e/	2cc#Xt>\	.	.	.
8G 8GG\	8cc# 8a 8e/	.	.	.	.
8G 8GG\	8cc# 8a 8e/	.	.	.	.
8GJ 8GG\	8cc#J 8a 8e/	.	.	.	.
.	.	(<16qqb/LL	.	.	[
.	.	16qqcc#/JJ)	.	.	.
=29	=29	=29	=29	=29	=29
!	!	!	!	!	!LO:DY:a:rj
8F 8FF/L	8ddL 8a 8f\	4dd\	-re	.	f
8F 8FF/J	8dd 8a 8f\J	.	.	.	.
8C#X 8CC#X/L	8ee 8a\L	4ee\	mi	.	.
8C#X 8CC#X/J	8eeJ 8a\	.	.	.	.
8D 8DD/L	8ffL 8dd 8a\	4ff\	fa	.	.
8D 8DD/J	8ffJ 8dd 8a\	.	.	.	.
8F 8FF/L	8dd/L 8a/ 8f/	4dd\	re	.	.
8F 8FF/J	8ddJ 8a 8f\	.	.	.	.
=30	=30	=30	=30	=30	=30
!	!	!LO:TX:a:t=P:problem=łuk kończy się za kreską taktową	!	!	!
8GL 8GG\	8ccL 8g 8e/	(>16cc\LL	do-	.	.
.	.	16dd\	.	.	.
8G 8GG\	8cc 8g 8e/	16ee\	.	.	.
.	.	16ff\JJ	.	.	.
8G 8GG\	8cc 8g 8e/	16gg\LL	.	.	.
.	.	16ff\	.	.	.
8GJ 8GG\	8ccJ 8g 8e/	16ee\	.	.	.
.	.	16dd\JJ	.	.	.
4G 4GG\	4cc 4g 4e/	16cc/LL	.	.	.
.	.	16b/	.	.	.
.	.	16a/	.	.	.
.	.	16g/JJ	.	.	.
4r	4r	16f/LL	.	.	.
.	.	16e/	.	.	.
.	.	16d/	.	.	.
.	.	16c/JJ	.	.	.
!!LO:LB:g=original
=31	=31	=31	=31	=31	=31
8FL 8FF\	8dL 8c 8A</	2d/)	-re	.	.
8F 8FF\	8d 8c 8A</	.	.	.	.
8F 8FF\	8d 8c 8A</	.	.	.	.
8FJ 8FF\	8dJ 8c 8A</	.	.	.	.
8F#XL 8FF#X\	8aL 8e-X 8c/	2aa^<\	la	.	.
8F# 8FF#\	8a 8e- 8c/	.	.	.	.
8F# 8FF#\	8a 8e- 8c/	.	.	.	.
8F#J 8FF#\	8aJ 8e- 8c/	.	.	.	.
=32	=32	=32	=32	=32	=32
4G 4GG\	4g 4en 4c/	2gg\	sol	.	.
4r	4g 4e 4c/	.	.	.	.
4G 4GG\	4r	2b\	si	.	.
4r	4b 4g 4f 4d/	.	.	.	.
=33	=33	=33	=33	=33	=33
4C 4CC/	4cc 4g 4e/	4cc\	do.	.	.
4r	4r	4r	.	.	.
2r	2r	2r	.	.	.
==	==	==	==	==	==
*-	*-	*-	*-	*-	*-
!!!system-decoration: s1{(s2,s3)}
!!!RDF**kern: > = above
!!!RDF**kern: < = below
!!!EED: Antoni Szymański
!!!EEV: 2021-06-04
!!!ENC: Andrzej Gręziak
!!!END: 2021-05-18
!!!YEC: Copyright 2022 Narodowy Instytut Fryderyka Chopina (https://polishscores.org)
!!!YEM: Licence CC BY 4.0 (https://creativecommons.org/licenses/by/4.0)
